public/assets/flagOfTheUK.svg

<svg width="26" height="26" viewBox="0 0 26 26" fill="none" xmlns="http://www.w3.org/2000/svg">
<path d="M12.9994 0C20.1791 0 25.9994 5.82029 25.9994 12.9994C25.9994 20.1791 20.1791 26 12.9994 26C5.82029 26 0 20.1791 0 12.9994C0 5.82029 5.82029 0 12.9994 0Z" fill="#FEFEFE"/>
<path d="M8.64348 8.40757V0.748493C6.16134 1.63154 4.02701 3.24805 2.5 5.33493L8.64348 8.40757ZM8.64348 17.5924V25.2515C6.16254 24.3685 4.02881 22.7532 2.5006 20.6651L8.64348 17.5924ZM17.3268 17.5924V25.2617C19.8167 24.3829 21.9576 22.7664 23.4907 20.6759L17.3268 17.5924ZM17.3268 8.40757V0.738281C19.8167 1.61712 21.9589 3.23364 23.4913 5.32471L17.3268 8.40757Z" fill="#012169"/>
<path d="M24.5511 17.3347H21.6611L24.6256 18.8197C24.8184 18.4346 24.9926 18.0388 25.1476 17.6333L24.5511 17.3347ZM23.99 6.05577L18.7987 8.65866H21.6887L24.6292 7.18691C24.4351 6.79885 24.2213 6.42101 23.99 6.05577ZM10.3809 15.5987V25.7357C11.2267 25.9081 12.1025 26 12.9994 26C13.886 26 14.7529 25.9105 15.5903 25.7417V15.5987H25.7387C25.9087 14.7589 25.9994 13.8903 25.9994 12.9994C25.9994 12.1055 25.9087 11.2321 25.7369 10.3881H15.5903V0.258907C14.7374 0.0865133 13.8695 -0.000219993 12.9994 4.1903e-07C12.1025 4.1903e-07 11.2267 0.0925101 10.3809 0.264314V10.3881H0.262512C0.0876982 11.2475 -0.000248077 12.1224 5.25573e-07 12.9994C5.25573e-07 13.8903 0.090708 14.7589 0.260709 15.5987H10.3809ZM1.41287 8.66527H4.3029L1.36602 7.19472C1.17379 7.57978 0.998984 7.97685 0.844601 8.38173L1.41287 8.66527ZM7.1719 17.3413H4.28187L1.36422 18.8017C1.5591 19.1914 1.77342 19.5712 2.00638 19.9394L7.19833 17.3413H7.1719Z" fill="#C8102E"/>
</svg>

<svg width="26" height="26" fill="none" xmlns="http://www.w3.org/2000/svg"><path d="M13 0c7.18 0 13 5.82 13 13s-5.82 13-13 13S0 20.18 0 13 5.82 0 13 0Z" fill="#FEFEFE"/><path d="M8.643 8.408V.748A13.043 13.043 0 0 0 2.5 5.335l6.143 3.073Zm0 9.184v7.66a13.045 13.045 0 0 1-6.142-4.587l6.142-3.073Zm8.684 0v7.67a13.038 13.038 0 0 0 6.164-4.586l-6.164-3.084Zm0-9.184V.738a13.034 13.034 0 0 1 6.164 4.587l-6.164 3.083Z" fill="#012169"/><path d="M24.551 17.335h-2.89l2.965 1.485c.192-.385.367-.781.522-1.187l-.597-.298Zm-.561-11.28L18.799 8.66h2.89l2.94-1.472a12.91 12.91 0 0 0-.639-1.131ZM10.38 15.6v10.137a13.101 13.101 0 0 0 5.21.006V15.599H25.74a13.086 13.086 0 0 0-.002-5.21H15.59V.258a13.06 13.06 0 0 0-5.21.005v10.124H.264a13.082 13.082 0 0 0-.002 5.21h10.12ZM1.414 8.665h2.89l-2.937-1.47c-.192.385-.367.782-.521 1.187l.568.283Zm5.759 8.676h-2.89l-2.918 1.46c.195.39.41.77.642 1.138l5.192-2.598h-.026Z" fill="#C8102E"/></svg>
